X: 1
T: Pat and Al's    [G]
C: Liz Carroll
N: "Whistle/Pipe friendly version."
R: jig
S: https://thesession.org/tunes/3206 2017-4-26
Z: 2017 John Chambers <jc:trillian.mit.edu>
M: 6/8
L: 1/8
K: G
|:\
G3 G2A | B2D G2B | AGE E2G | B2A B2d |\
G3 G2A | B2D G2B | AGE EDB |1 DBA ABA :|2 DBA ABD |]
G3 G2A | B2d ged | dee e2d | B2d e2g |\
dGG G2A | B2d ged | dee e2g | BAA A2B ||
dGG G2A | B2d ged | dee e2d | B2d e2g |\
gdd e2B | dGG GBd | AGE E2G | BAA A2B |]
